src/scalable/apps/addressbook.svg

<?xml version="1.0" encoding="UTF-8" standalone="no"?>
<!-- Created with Inkscape (http://www.inkscape.org/) -->

<svg
   xmlns:dc="http://purl.org/dc/elements/1.1/"
   xmlns:cc="http://creativecommons.org/ns#"
   xmlns:rdf="http://www.w3.org/1999/02/22-rdf-syntax-ns#"
   xmlns:svg="http://www.w3.org/2000/svg"
   xmlns="http://www.w3.org/2000/svg"
   xmlns:xlink="http://www.w3.org/1999/xlink"
   xmlns:sodipodi="http://sodipodi.sourceforge.net/DTD/sodipodi-0.dtd"
   xmlns:inkscape="http://www.inkscape.org/namespaces/inkscape"
   width="64"
   height="64"
   viewBox="0 0 16.933333 16.933333"
   version="1.1"
   id="svg4572"
   inkscape:version="0.92.2 2405546, 2018-03-11"
   sodipodi:docname="addressbook.svg">
  <title
     id="title4611">Canvas icon theme</title>
  <defs
     id="defs4566">
    <linearGradient
       inkscape:collect="always"
       id="linearGradient849">
      <stop
         style="stop-color:#000000;stop-opacity:1;"
         offset="0"
         id="stop845" />
      <stop
         style="stop-color:#000000;stop-opacity:0;"
         offset="1"
         id="stop847" />
    </linearGradient>
    <linearGradient
       id="linearGradient839">
      <stop
         style="stop-color:#4347ce;stop-opacity:1"
         offset="0"
         id="stop841" />
      <stop
         style="stop-color:#435ece;stop-opacity:1"
         offset="1"
         id="stop843" />
    </linearGradient>
    <linearGradient
       inkscape:collect="always"
       xlink:href="#linearGradient849"
       id="linearGradient851"
       x1="40.829102"
       y1="58"
       x2="40.829102"
       y2="6"
       gradientUnits="userSpaceOnUse" />
  </defs>
  <sodipodi:namedview
     id="base"
     pagecolor="#ffffff"
     bordercolor="#666666"
     borderopacity="1.0"
     inkscape:pageopacity="0.0"
     inkscape:pageshadow="2"
     inkscape:zoom="5.656854"
     inkscape:cx="-14.279846"
     inkscape:cy="18.430955"
     inkscape:document-units="px"
     inkscape:current-layer="layer1"
     showgrid="true"
     units="px"
     width="64px"
     showguides="true"
     inkscape:guide-bbox="true"
     inkscape:window-width="1920"
     inkscape:window-height="1027"
     inkscape:window-x="0"
     inkscape:window-y="27"
     inkscape:window-maximized="1"
     inkscape:snap-bbox="true"
     inkscape:bbox-nodes="true"
     inkscape:snap-bbox-edge-midpoints="false"
     inkscape:snap-global="true">
    <inkscape:grid
       type="xygrid"
       id="grid4582" />
    <sodipodi:guide
       position="1.0583333,15.875"
       orientation="0,1"
       id="guide4584"
       inkscape:locked="false" />
    <sodipodi:guide
       position="1.0583333,1.0583333"
       orientation="1,0"
       id="guide4586"
       inkscape:locked="false" />
    <sodipodi:guide
       position="15.875,15.875"
       orientation="1,0"
       id="guide4588"
       inkscape:locked="false" />
    <sodipodi:guide
       position="1.0583333,1.0583333"
       orientation="0,1"
       id="guide4590"
       inkscape:locked="false" />
    <sodipodi:guide
       position="8.4666665,8.4666665"
       orientation="0,1"
       id="guide822"
       inkscape:locked="false" />
    <sodipodi:guide
       position="8.4666665,8.4666665"
       orientation="1,0"
       id="guide824"
       inkscape:locked="false" />
  </sodipodi:namedview>
  <metadata
     id="metadata4569">
    <rdf:RDF>
      <cc:Work
         rdf:about="">
        <dc:format>image/svg+xml</dc:format>
        <dc:type
           rdf:resource="http://purl.org/dc/dcmitype/StillImage" />
        <dc:title>Canvas icon theme</dc:title>
        <cc:license
           rdf:resource="http://creativecommons.org/licenses/by-nc-sa/4.0/" />
        <dc:creator>
          <cc:Agent>
            <dc:title>Vince Liuice</dc:title>
          </cc:Agent>
        </dc:creator>
      </cc:Work>
      <cc:License
         rdf:about="http://creativecommons.org/licenses/by-nc-sa/4.0/">
        <cc:permits
           rdf:resource="http://creativecommons.org/ns#Reproduction" />
        <cc:permits
           rdf:resource="http://creativecommons.org/ns#Distribution" />
        <cc:requires
           rdf:resource="http://creativecommons.org/ns#Notice" />
        <cc:requires
           rdf:resource="http://creativecommons.org/ns#Attribution" />
        <cc:prohibits
           rdf:resource="http://creativecommons.org/ns#CommercialUse" />
        <cc:permits
           rdf:resource="http://creativecommons.org/ns#DerivativeWorks" />
        <cc:requires
           rdf:resource="http://creativecommons.org/ns#ShareAlike" />
      </cc:License>
    </rdf:RDF>
  </metadata>
  <g
     inkscape:label="Layer 1"
     inkscape:groupmode="layer"
     id="layer1"
     transform="translate(0,-280.06667)">
    <rect
       ry="0.31235385"
       y="282.71252"
       x="10.583333"
       height="4.4978952"
       width="4.2333331"
       id="rect4996"
       style="display:inline;opacity:1;fill:#5ad85d;fill-opacity:1;stroke:none;stroke-width:0.03030285;stroke-linecap:round;stroke-linejoin:miter;stroke-miterlimit:4;stroke-dasharray:none;stroke-opacity:1;enable-background:new" />
    <rect
       style="display:inline;opacity:1;fill:#ff584c;fill-opacity:1;stroke:none;stroke-width:0.03214104;stroke-linecap:round;stroke-linejoin:miter;stroke-miterlimit:4;stroke-dasharray:none;stroke-opacity:1;enable-background:new"
       id="rect4998"
       width="4.2333331"
       height="4.4978952"
       x="10.583333"
       y="286.21826"
       ry="0.35139808" />
    <rect
       ry="0.33073083"
       y="289.85626"
       x="10.583333"
       height="4.2333546"
       width="4.2333331"
       id="rect5000"
       style="display:inline;opacity:1;fill:#ffce3d;fill-opacity:1;stroke:none;stroke-width:0.03118154;stroke-linecap:round;stroke-linejoin:miter;stroke-miterlimit:4;stroke-dasharray:none;stroke-opacity:1;enable-background:new" />
    <rect
       style="fill:#387fe7;fill-opacity:1;stroke:none;stroke-width:0.32350633"
       id="rect2991-1"
       width="12.170833"
       height="13.758333"
       x="2.1166668"
       y="-295.41251"
       ry="0.52916974"
       transform="scale(1,-1)" />
    <path
       style="opacity:1;fill:#ffffff;fill-opacity:1;stroke:none;stroke-width:0.42427704;stroke-miterlimit:4;stroke-dasharray:none;stroke-opacity:0.03921569;paint-order:stroke markers fill"
       d="M 9.4779744,289.73946 A 1.5875,1.5875 0 0 1 8.2020832,290.38542 1.5875,1.5875 0 0 1 6.926709,289.7405 3.7041666,2.381248 0 0 0 4.4979166,291.97292 H 11.90625 a 3.7041666,2.381248 0 0 0 -2.4282756,-2.23346 z"
       id="path833"
       inkscape:connector-curvature="0" />
    <g
       id="g853"
       transform="translate(-2.7109299e-7,1.5875032)">
      <circle
         r="1.5875"
         cy="284.82916"
         cx="8.2020836"
         id="path844"
         style="opacity:1;fill:#ffffff;fill-opacity:1;stroke:none;stroke-width:0.53473681;stroke-miterlimit:4;stroke-dasharray:none;stroke-opacity:0.03921569;paint-order:stroke markers fill" />
      <path
         inkscape:connector-curvature="0"
         id="circle846"
         d="m 6.6145832,284.82917 a 1.5875,2.6458316 0 0 0 1.5875,2.64583 1.5875,2.6458316 0 0 0 1.5875,-2.64583 z"
         style="opacity:1;fill:#ffffff;fill-opacity:1;stroke:none;stroke-width:0.69034207;stroke-miterlimit:4;stroke-dasharray:none;stroke-opacity:0.03921569;paint-order:stroke markers fill" />
    </g>
    <path
       style="fill:url(#linearGradient851);fill-opacity:1;stroke:none;stroke-width:1.22270107;opacity:0.25"
       d="M 51.070312 6 A 28.226224 39.249977 20.202872 0 1 45.650391 39.513672 A 28.226224 39.249977 20.202872 0 1 27.658203 58 L 52 58 C 53.108006 58 54 57.108006 54 56 L 54 8 C 54 6.8919935 53.108006 6 52 6 L 51.070312 6 z "
       transform="matrix(0.26458333,0,0,0.26458333,0,280.06667)"
       id="rect35" />
  </g>
</svg>

<svg xmlns="http://www.w3.org/2000/svg" xmlns:xlink="http://www.w3.org/1999/xlink" width="64" height="64" viewBox="0 0 16.933 16.933"><defs><linearGradient id="a"><stop offset="0"/><stop offset="1" stop-opacity="0"/></linearGradient><linearGradient xlink:href="#a" id="b" x1="40.829" y1="58" x2="40.829" y2="6" gradientUnits="userSpaceOnUse"/></defs><g transform="translate(0 -280.067)"><rect ry=".312" y="282.713" x="10.583" height="4.498" width="4.233" fill="#5ad85d"/><rect width="4.233" height="4.498" x="10.583" y="286.218" ry=".351" fill="#ff584c"/><rect ry=".331" y="289.856" x="10.583" height="4.233" width="4.233" fill="#ffce3d"/><rect width="12.171" height="13.758" x="2.117" y="-295.413" ry=".529" transform="scale(1 -1)" fill="#387fe7"/><path d="M9.478 289.74a1.587 1.587 0 0 1-1.276.645 1.587 1.587 0 0 1-1.275-.644 3.704 2.381 0 0 0-2.43 2.232h7.41a3.704 2.381 0 0 0-2.429-2.234z" fill="#fff" paint-order="stroke markers fill"/><g transform="translate(0 1.588)" fill="#fff" paint-order="stroke markers fill"><circle r="1.587" cy="284.829" cx="8.202"/><path d="M6.615 284.83a1.587 2.646 0 0 0 1.587 2.645 1.587 2.646 0 0 0 1.588-2.646z"/></g><path d="M51.07 6a28.226 39.25 20.203 0 1-5.42 33.514A28.226 39.25 20.203 0 1 27.658 58H52c1.108 0 2-.892 2-2V8c0-1.108-.892-2-2-2h-.93z" transform="matrix(.26458 0 0 .26458 0 280.067)" fill="url(#b)" opacity=".25"/></g></svg>
